**kern	**kern	**dynam
*part1	*part1	*part1
*staff2	*staff1	*
*I"Piano	*	*
*clefF4	*clefG2	*
*k[b-e-a-d-g-]	*k[b-e-a-d-g-]	*
=1	=1	=1
4EE-	4r	.
4r	4B- 4e- 4g-X	.
!	!LO:TX:a:i:t=riten.	!
4GG- 4G-	4r	.
4r	4B- 4e- 4b-	f
=	=	=
!	!LO:TX:b:i:t=cresc.	!
4FF 4F	4r	.
4r	4e- 4an 4cc	.
4BB-	4r	.
4r	4d- 4f 4b- 4dd-	.
=	=	=
!	!LO:TX:b:i:t=dimin.	!
2GGn	4r	.
.	4B- 4d- 4en	.
2AA-	4r	.
.	4A- 4d- 4f	.
=	=	=
2AAA- 2AA-	4r	.
!	!LO:TX:b:i:t=rit.	!
.	4G- 4c 4e- 4a-	.
4DD-	4r	.
4AA- 4D-	4F 4A- 4d- 4f	pp
=	=	=
*	*^	*
4EE-	4.g-	4re	mf
4BB- 4E-	.	4G-< 4B-<	.
.	8f	.	.
4GG-	8e-	4e-	.
.	8r	.	.
4E- 4B-	4ee-^^	4e- 4b-	.
=	=	=	=
4AA-	4dd-	4r	.
4E- 4A-	4a- 4cc	4e- 4g-	.
4DD-	4dd-	4r	.
4D- 4A-	4a-	4d- 4f	.
=	=	=	=
4EE-	4.g-	4re	.
4BB- 4E-	.	4G-< 4B-<	.
.	8f	.	.
4GG-	4e-	4e-	.
!	!	!	!LO:DY:a
4E- 4B-	4gg-	4g- 4b-	f
=	=	=	=
4AA-	4.ff	4r	.
4E- 4A-	.	4g- 4a- 4cc	.
.	8ee-	.	.
*	*v	*v	*
2D-; 2A-	2f; 2dd-	.
=:|!	=:|!	=:|!
*-	*-	*-
!!!system-decoration: {(s1,s2)}
!!!RDF**kern: < = below
